X: 16970
T: Hayes And Hayes
R: waltz
M: 3/4
K: Dmajor
A,2 D2 E2||"D"F6|"F#m"E6|"G"(D6|"D"D4) E2|F2A2 d2|"F#m"c3 ABc|
"G"B3 GAB|"D"A4 F2|"Bm"F6|"E"E4 D2|"A"E6|A,2 D2 E2|
"D"F6|"A"E6|"G"(D6|D4) E2|"D"F2 A2 d2|"F#m"c3 ABc|
"G"B3 GAB|"D"A4 F2|"Bm"F6|"E"E4 D2|"A"(E6|E6)||[K:F]
"F"F2 C2A2|"C"G4 A=B|"Am"c4 e2|"Em"e6|"D"d2 A3 =B|"Am"c6|"D"d2 A3 =B|"Am"c6|
"Bb"d2 c2B2|"F"A4 "C"G2´|"F"F2 C2 A2|"C"G3 cde|"Dm"f4a2|"A"a6|"G"g2 d2e2|"Dm"f6|
"G"g2 d2e2|"Dm"f6|"Eb"g2 f2 ^d2|"F"=d4 c2|"Bb"B6|B2 c2 B2|"A"A6||

